material/.icons/material/credit-card-multiple-outline.svg

<svg xmlns="http://www.w3.org/2000/svg" viewBox="0 0 24 24"><path d="M21 8V6H7v2h14m0 8v-5H7v5h14m0-12a2 2 0 012 2v10a2 2 0 01-2 2H7a2 2 0 01-2-2V6c0-1.11.89-2 2-2h14M3 20h15v2H3a2 2 0 01-2-2V9h2v11z"/></svg>

<?xml version="1.0" encoding="UTF-8"?><!DOCTYPE svg PUBLIC "-//W3C//DTD SVG 1.1//EN" "http://www.w3.org/Graphics/SVG/1.1/DTD/svg11.dtd"><svg xmlns="http://www.w3.org/2000/svg" xmlns:xlink="http://www.w3.org/1999/xlink" version="1.1" id="mdi-credit-card-multiple-outline" width="24" height="24" viewBox="0 0 24 24"><path d="M21,8V6H7V8H21M21,16V11H7V16H21M21,4A2,2 0 0,1 23,6V16A2,2 0 0,1 21,18H7C5.89,18 5,17.1 5,16V6C5,4.89 5.89,4 7,4H21M3,20H18V22H3A2,2 0 0,1 1,20V9H3V20Z" /></svg>
